images/Frame.svg

<svg width="24" height="24" viewBox="0 0 24 24" fill="none" xmlns="http://www.w3.org/2000/svg">
<path d="M3 11.25C2.58579 11.25 2.25 11.5858 2.25 12C2.25 12.4142 2.58579 12.75 3 12.75V11.25ZM5 12.75C5.41421 12.75 5.75 12.4142 5.75 12C5.75 11.5858 5.41421 11.25 5 11.25V12.75ZM4.46973 18.4697C4.17684 18.7626 4.17684 19.2374 4.46973 19.5303C4.76262 19.8232 5.2375 19.8232 5.53039 19.5303L4.46973 18.4697ZM7.53039 17.5303C7.82328 17.2374 7.82328 16.7626 7.53039 16.4697C7.2375 16.1768 6.76262 16.1768 6.46973 16.4697L7.53039 17.5303ZM12.75 19C12.75 18.5858 12.4142 18.25 12 18.25C11.5858 18.25 11.25 18.5858 11.25 19H12.75ZM11.25 21C11.25 21.4142 11.5858 21.75 12 21.75C12.4142 21.75 12.75 21.4142 12.75 21H11.25ZM17.5303 16.4697C17.2374 16.1768 16.7626 16.1768 16.4697 16.4697C16.1768 16.7626 16.1768 17.2374 16.4697 17.5303L17.5303 16.4697ZM18.4697 19.5303C18.7626 19.8232 19.2374 19.8232 19.5303 19.5303C19.8232 19.2374 19.8232 18.7626 19.5303 18.4697L18.4697 19.5303ZM5.53033 4.46967C5.23744 4.17678 4.76256 4.17678 4.46967 4.46967C4.17678 4.76256 4.17678 5.23744 4.46967 5.53033L5.53033 4.46967ZM6.46967 7.53033C6.76256 7.82322 7.23744 7.82322 7.53033 7.53033C7.82322 7.23744 7.82322 6.76256 7.53033 6.46967L6.46967 7.53033ZM19 11.25C18.5858 11.25 18.25 11.5858 18.25 12C18.25 12.4142 18.5858 12.75 19 12.75V11.25ZM21 12.75C21.4142 12.75 21.75 12.4142 21.75 12C21.75 11.5858 21.4142 11.25 21 11.25V12.75ZM16.4696 6.46967C16.1767 6.76256 16.1767 7.23744 16.4696 7.53033C16.7625 7.82322 17.2374 7.82322 17.5303 7.53033L16.4696 6.46967ZM19.5303 5.53033C19.8232 5.23744 19.8232 4.76256 19.5303 4.46967C19.2374 4.17678 18.7625 4.17678 18.4696 4.46967L19.5303 5.53033ZM12.75 3C12.75 2.58579 12.4142 2.25 12 2.25C11.5858 2.25 11.25 2.58579 11.25 3H12.75ZM11.25 5C11.25 5.41421 11.5858 5.75 12 5.75C12.4142 5.75 12.75 5.41421 12.75 5H11.25ZM14.25 12C14.25 13.2426 13.2426 14.25 12 14.25V15.75C14.0711 15.75 15.75 14.0711 15.75 12H14.25ZM12 14.25C10.7574 14.25 9.75 13.2426 9.75 12H8.25C8.25 14.0711 9.92893 15.75 12 15.75V14.25ZM9.75 12C9.75 10.7574 10.7574 9.75 12 9.75V8.25C9.92893 8.25 8.25 9.92893 8.25 12H9.75ZM12 9.75C13.2426 9.75 14.25 10.7574 14.25 12H15.75C15.75 9.92893 14.0711 8.25 12 8.25V9.75ZM3 12.75H5V11.25H3V12.75ZM5.53039 19.5303L7.53039 17.5303L6.46973 16.4697L4.46973 18.4697L5.53039 19.5303ZM11.25 19V21H12.75V19H11.25ZM16.4697 17.5303L18.4697 19.5303L19.5303 18.4697L17.5303 16.4697L16.4697 17.5303ZM4.46967 5.53033L6.46967 7.53033L7.53033 6.46967L5.53033 4.46967L4.46967 5.53033ZM19 12.75H21V11.25H19V12.75ZM17.5303 7.53033L19.5303 5.53033L18.4696 4.46967L16.4696 6.46967L17.5303 7.53033ZM11.25 3V5H12.75V3H11.25Z" fill="black"/>
</svg>

<svg width="24" height="24" fill="none" xmlns="http://www.w3.org/2000/svg"><path d="M3 11.25a.75.75 0 0 0 0 1.5v-1.5zm2 1.5a.75.75 0 0 0 0-1.5v1.5zm-.53 5.72a.75.75 0 1 0 1.06 1.06l-1.06-1.06zm3.06-.94a.75.75 0 1 0-1.06-1.06l1.06 1.06zM12.75 19a.75.75 0 0 0-1.5 0h1.5zm-1.5 2a.75.75 0 0 0 1.5 0h-1.5zm6.28-4.53a.75.75 0 1 0-1.06 1.06l1.06-1.06zm.94 3.06a.75.75 0 1 0 1.06-1.06l-1.06 1.06zM5.53 4.47a.75.75 0 0 0-1.06 1.06l1.06-1.06zm.94 3.06a.75.75 0 0 0 1.06-1.06L6.47 7.53zM19 11.25a.75.75 0 0 0 0 1.5v-1.5zm2 1.5a.75.75 0 0 0 0-1.5v1.5zm-4.53-6.28a.75.75 0 1 0 1.06 1.06l-1.06-1.06zm3.06-.94a.75.75 0 1 0-1.06-1.06l1.06 1.06zM12.75 3a.75.75 0 0 0-1.5 0h1.5zm-1.5 2a.75.75 0 0 0 1.5 0h-1.5zm3 7A2.25 2.25 0 0 1 12 14.25v1.5A3.75 3.75 0 0 0 15.75 12h-1.5zM12 14.25A2.25 2.25 0 0 1 9.75 12h-1.5A3.75 3.75 0 0 0 12 15.75v-1.5zM9.75 12A2.25 2.25 0 0 1 12 9.75v-1.5A3.75 3.75 0 0 0 8.25 12h1.5zM12 9.75A2.25 2.25 0 0 1 14.25 12h1.5A3.75 3.75 0 0 0 12 8.25v1.5zm-9 3h2v-1.5H3v1.5zm2.53 6.78 2-2-1.06-1.06-2 2 1.06 1.06zm5.72-.53v2h1.5v-2h-1.5zm5.22-1.47 2 2 1.06-1.06-2-2-1.06 1.06zm-12-12 2 2 1.06-1.06-2-2-1.06 1.06zM19 12.75h2v-1.5h-2v1.5zm-1.47-5.22 2-2-1.06-1.06-2 2 1.06 1.06zM11.25 3v2h1.5V3h-1.5z" fill="#000"/></svg>
